X:174
T:Moll Peatley. THO2.174
O:London
M:6/4
L:1/8
Q:3/4=90
N:The ‘B' notes in the second measure of the 1st strain may be played natural.
B:Thompson's Compleat Coll. of 200 Favourite Country Dances, vol.2,1765
Z:Transcribed and edited by Fynn Titford-Mock, 2007
Z:abc's:AK/Fiddler's Companion/VMP 2009
K:Dmin
d6 f6|A4B2 c3B A2|d4e2 f3g f2|e4 d2 "^dotted in MS"d4||
de|f3g f2c2 A2F2|f6-f4 ef|g3a g2g2 e2c2|g6-g4 fe|d4 e2 f4 g2|
a4A2 ^c4A2|a4A2 ^c4A2|a4A2 ^c4A2|a2g2f2 e4d2|d6-d4:|

